packages/kaspersky-hexa-ui-icons/src/iconsSVGs/48/Link.svg

<svg width="48" height="48" viewBox="0 0 48 48" fill="none" xmlns="http://www.w3.org/2000/svg">
<path d="M14.7463 20.7215L7.43309 28.0346C5.48047 29.9873 5.48047 33.1531 7.43309 35.1057L12.792 40.4646C14.7446 42.4172 17.9104 42.4172 19.8631 40.4646L27.1507 33.177M20.5953 14.8724L27.9322 7.53553C29.8848 5.58291 33.0506 5.58291 35.0033 7.53553L40.3622 12.8944C42.3148 14.8471 42.3148 18.0129 40.3622 19.9655L33.0763 27.2513M19.249 28.6487L28.5461 19.3516M16.0001 10L14.0001 6M32.0001 38L34.0001 42M10.0001 16L6.0001 14M38.0001 32L42.0001 34" stroke="currentColor" stroke-width="2" stroke-linecap="round"/>
</svg>

<svg xmlns="http://www.w3.org/2000/svg" width="48" height="48" fill="none" viewBox="0 0 48 48"><path stroke="currentColor" stroke-linecap="round" stroke-width="2" d="m14.7463 20.7215-7.3132 7.3131c-1.9526 1.9527-1.9526 5.1185 0 7.0711l5.3589 5.3589c1.9526 1.9526 5.1184 1.9526 7.0711 0l7.2876-7.2876m-6.5554-18.3046 7.3369-7.3369c1.9526-1.9526 5.1184-1.9526 7.0711 0l5.3589 5.3589c1.9526 1.9527 1.9526 5.1185 0 7.0711l-7.2859 7.2858M19.249 28.6487l9.2971-9.2971M16.0001 10l-2-4m18 32 2 4m-24-26-4-2m32 18 4 2"/></svg>
